src/images/svg/be-square/list-3.svg

<svg width="56" height="56" viewBox="0 0 56 56" fill="none" xmlns="http://www.w3.org/2000/svg">
<path d="M0 28C0 12.536 12.536 0 28 0C43.464 0 56 12.536 56 28C56 43.464 43.464 56 28 56C12.536 56 0 43.464 0 28Z" fill="#457B9D"/>
<path d="M26.4494 24.496C27.6441 24.496 28.5081 24.272 29.0414 23.824C29.5961 23.3547 29.8734 22.7787 29.8734 22.096V21.872C29.8734 21.0613 29.6068 20.4107 29.0734 19.92C28.5614 19.4293 27.8254 19.184 26.8654 19.184C25.9694 19.184 25.1268 19.4187 24.3374 19.888C23.5481 20.336 22.8761 20.9867 22.3214 21.84L19.3134 19.024C19.7401 18.4693 20.1988 17.968 20.6894 17.52C21.1801 17.0507 21.7348 16.656 22.3534 16.336C22.9721 15.9947 23.6654 15.7387 24.4334 15.568C25.2014 15.376 26.0654 15.28 27.0254 15.28C28.2201 15.28 29.2974 15.4187 30.2574 15.696C31.2388 15.9733 32.0708 16.3787 32.7534 16.912C33.4574 17.424 33.9908 18.0427 34.3534 18.768C34.7374 19.4933 34.9294 20.304 34.9294 21.2C34.9294 21.904 34.8121 22.544 34.5774 23.12C34.3641 23.696 34.0548 24.1973 33.6494 24.624C33.2654 25.0507 32.8174 25.4027 32.3054 25.68C31.7934 25.936 31.2494 26.1173 30.6734 26.224V26.416C31.3348 26.544 31.9428 26.7573 32.4974 27.056C33.0734 27.3333 33.5641 27.696 33.9694 28.144C34.3961 28.592 34.7268 29.1253 34.9614 29.744C35.1961 30.3413 35.3134 31.024 35.3134 31.792C35.3134 32.7947 35.1108 33.7013 34.7054 34.512C34.3001 35.3227 33.7241 36.016 32.9774 36.592C32.2308 37.168 31.3348 37.616 30.2894 37.936C29.2441 38.2347 28.0921 38.384 26.8334 38.384C25.7028 38.384 24.7001 38.2667 23.8254 38.032C22.9508 37.7973 22.1828 37.488 21.5214 37.104C20.8814 36.6987 20.3161 36.24 19.8254 35.728C19.3561 35.216 18.9401 34.672 18.5774 34.096L22.1294 31.344C22.6201 32.2613 23.2174 33.0187 23.9214 33.616C24.6468 34.192 25.6174 34.48 26.8334 34.48C27.9214 34.48 28.7641 34.2133 29.3614 33.68C29.9801 33.1253 30.2894 32.3787 30.2894 31.44V31.248C30.2894 30.3307 29.9374 29.648 29.2334 29.2C28.5508 28.7307 27.6014 28.496 26.3854 28.496H24.3694V24.496H26.4494Z" fill="white"/>
</svg>

<svg xmlns="http://www.w3.org/2000/svg" width="56" height="56" fill="none"  xmlns:v="https://vecta.io/nano"><path d="M0 28C0 12.536 12.536 0 28 0s28 12.536 28 28-12.536 28-28 28S0 43.464 0 28z" fill="#457b9d"/><path d="M26.449 24.496c1.195 0 2.059-.224 2.592-.672.555-.469.832-1.045.832-1.728v-.224c0-.811-.267-1.461-.8-1.952-.512-.491-1.248-.736-2.208-.736-.896 0-1.739.235-2.528.704-.789.448-1.461 1.099-2.016 1.952l-3.008-2.816c.427-.555.885-1.056 1.376-1.504.491-.469 1.045-.864 1.664-1.184.619-.341 1.312-.597 2.08-.768.768-.192 1.632-.288 2.592-.288 1.195 0 2.272.139 3.232.416.981.277 1.813.683 2.496 1.216.704.512 1.237 1.131 1.6 1.856.384.725.576 1.536.576 2.432 0 .704-.117 1.344-.352 1.92a4.35 4.35 0 0 1-.928 1.504 4.99 4.99 0 0 1-1.344 1.056c-.512.256-1.056.437-1.632.544v.192c.661.128 1.269.341 1.824.64.576.277 1.067.64 1.472 1.088.427.448.757.981.992 1.6.235.597.352 1.28.352 2.048 0 1.003-.203 1.909-.608 2.72s-.981 1.504-1.728 2.08-1.643 1.024-2.688 1.344c-1.045.299-2.197.448-3.456.448-1.131 0-2.133-.117-3.008-.352s-1.643-.544-2.304-.928c-.64-.405-1.205-.864-1.696-1.376a11.41 11.41 0 0 1-1.248-1.632l3.552-2.752c.491.917 1.088 1.675 1.792 2.272.725.576 1.696.864 2.912.864 1.088 0 1.931-.267 2.528-.8.619-.555.928-1.301.928-2.24v-.192c0-.917-.352-1.6-1.056-2.048-.683-.469-1.632-.704-2.848-.704h-2.016v-4h2.08z" fill="#fff"/></svg>
